usr/share/icons/biglinux-icons-material-dark/16/actions/draw-freehand.svg

<svg xmlns="http://www.w3.org/2000/svg" viewBox="0 0 16 16">
  <defs id="defs3051">
    <style type="text/css" id="current-color-scheme">
      .ColorScheme-Text {
        color:#dedede;
      }
      </style>
  </defs>
 <path style="fill:currentColor;fill-opacity:1;stroke:none" 
     d="M 9.15625 2 L 2 9.125 L 2 12 C 3.075 12.019 4.84375 12 4.84375 12 L 12 4.84375 L 9.15625 2 z M 8.4375 4.15625 L 9.84375 5.5625 L 6.9980469 8.4375 L 5.5605469 6.9980469 L 8.4375 4.15625 z M 4.84375 7.71875 L 6.28125 9.125 L 5.5625 9.84375 L 4.15625 8.4375 L 4.84375 7.71875 z M 12.123047 9 C 11.927047 9.001 11.392547 9.0455 10.560547 9.5625 C 10.300547 9.7245 10.107547 9.9089531 9.8105469 10.126953 C 9.6525469 10.242953 9.0850469 10.620953 8.8730469 10.751953 C 8.2540469 11.134953 8.0320469 11.231953 7.4980469 11.501953 C 6.9810469 11.762953 6.4395469 12.000453 6.0605469 12.189453 C 4.4685469 12.984453 1.9960937 13.001953 1.9960938 13.001953 L 1.9960938 14.001953 C 1.9960938 14.001953 4.4935469 14.033953 6.3105469 13.126953 C 6.5515469 13.006953 6.9790469 12.808953 7.3730469 12.626953 C 7.3730469 12.626953 8.4920469 12.034203 8.4980469 12.033203 C 8.6940469 11.924203 8.8592969 11.841203 9.1542969 11.658203 C 9.3822969 11.517203 9.9292969 11.166953 10.154297 11.001953 C 10.484297 10.758953 10.697047 10.579703 10.873047 10.470703 C 11.258047 10.168703 11.693047 9.9889531 12.123047 10.001953 C 12.089047 10.001953 12.253297 10.011703 12.404297 10.095703 C 12.555297 10.179703 12.714797 10.329703 12.841797 10.470703 C 13.086797 10.802703 13.198047 11.055953 13.248047 11.501953 C 13.212047 12.808953 11.968047 13.006953 10.998047 13.001953 L 10.998047 14.001953 C 12.977047 14.090953 13.998047 13.167703 13.998047 11.470703 C 13.994047 11.182703 13.947797 10.945953 13.841797 10.626953 C 13.735797 10.307953 13.575797 9.9514531 13.341797 9.6894531 C 12.980797 9.2664531 12.799047 9.0809531 12.123047 9.0019531 L 12.123047 9 z "
     class="ColorScheme-Text"
     />
</svg>

<svg xmlns="http://www.w3.org/2000/svg" viewBox="0 0 16 16">
<defs id="defs3051">
<style id="current-color-scheme" type="text/css">
.ColorScheme-Text{color:#dedede}
</style>
</defs>
<path d="M9.156 2 2 9.125V12c1.075.019 2.844 0 2.844 0L12 4.844zm-.719 2.156 1.407 1.407-2.846 2.875-1.437-1.44zM4.845 7.72 6.28 9.125l-.718.719-1.407-1.406zM12.123 9c-.196.001-.73.046-1.562.563-.26.162-.453.346-.75.564-.158.116-.726.494-.938.625-.619.383-.841.48-1.375.75-.517.261-1.058.498-1.437.687-1.592.795-4.065.813-4.065.813v1s2.498.032 4.315-.875c.24-.12.668-.318 1.062-.5 0 0 1.119-.593 1.125-.594.196-.109.361-.192.656-.375.228-.14.775-.491 1-.656.33-.243.543-.422.719-.531.385-.302.82-.482 1.25-.469-.034 0 .13.01.281.094s.31.234.438.375c.245.332.356.585.406 1.031-.036 1.307-1.28 1.505-2.25 1.5v1c1.979.089 3-.834 3-2.531a2.6 2.6 0 0 0-.156-.844c-.106-.319-.266-.676-.5-.938-.361-.423-.543-.608-1.219-.687z" class="ColorScheme-Text" style="fill:currentColor;fill-opacity:1;stroke:none"/>
</svg>
